gy/si-glyph-road.svg

<svg viewBox="0 0 17 16" xmlns="http://www.w3.org/2000/svg" class="si-glyph si-glyph-road" height="1em" width="1em">
  <path d="M14.073 0h-5.04v1.042H7.957V0H3.083l-2 16h14.922L14.073 0ZM9 15H8v-3h1v3Zm0-4.958H8V7h1v3.042ZM7.958 4.959v-2h1v2h-1Z" fill="#434343" class="si-glyph-fill" fill-rule="evenodd"/>
</svg>

<svg viewBox="0 0 17 16" version="1.1" xmlns="http://www.w3.org/2000/svg" class="si-glyph si-glyph-road" height="1em" width="1em">
  <g stroke="none" stroke-width="1" fill="none" fill-rule="evenodd">
    <path d="M14.0729979,0 L9.03234845,5.5313194e-08 L9.03234845,1.04200006 L7.958,1.042 L7.958,0 L3.083,0 L1.083,16 L16.005493,16 L14.0729979,0 Z M9,15 L8,15 L8,12 L9,12 L9,15 L9,15 Z M9,10.042 L8,10.042 L8,7 L9,7 L9,10.042 L9,10.042 Z M7.958,4.959 L7.958,2.959 L8.958,2.959 L8.958,4.959 L7.958,4.959 Z" fill="#434343" class="si-glyph-fill"/>
  </g>
</svg>
